images/multiroom.svg

<svg width="58" height="46" viewBox="0 0 46 36" fill="none" xmlns="http://www.w3.org/2000/svg">
<path d="M23 0C14.4221 0 6.55119 2.91775 0.411638 7.62684C0.190719 7.79796 0.0459588 8.05097 0.00920269 8.33021C-0.0275534 8.60944 0.0467058 8.89203 0.215644 9.11581C0.384582 9.33959 0.634361 9.48622 0.910031 9.52345C1.1857 9.56068 1.46468 9.48546 1.6856 9.31434C7.47142 4.87658 14.8902 2.11765 23 2.11765C31.1098 2.11765 38.5286 4.87658 44.3144 9.31434C44.5353 9.48546 44.8143 9.56068 45.09 9.52345C45.3656 9.48622 45.6154 9.33959 45.7844 9.11581C45.9533 8.89203 46.0275 8.60944 45.9908 8.33021C45.954 8.05097 45.8093 7.79796 45.5884 7.62684C39.4488 2.91775 31.5778 0 23 0ZM23 10.0588C16.8533 10.0588 11.1223 11.9435 6.66713 15.5846C6.54386 15.6651 6.4387 15.771 6.35848 15.8954C6.27827 16.0198 6.2248 16.1599 6.20156 16.3066C6.17831 16.4533 6.1858 16.6034 6.22355 16.7469C6.26129 16.8905 6.32844 17.0244 6.42064 17.14C6.51284 17.2556 6.62801 17.3502 6.75868 17.4177C6.88934 17.4852 7.03257 17.5242 7.17906 17.5319C7.32555 17.5397 7.47201 17.5162 7.60892 17.4628C7.74584 17.4095 7.87014 17.3276 7.97376 17.2224C12.0217 13.9141 17.2751 12.1765 23 12.1765C28.7249 12.1765 33.9783 13.9141 38.0262 17.2224C38.1299 17.3276 38.2542 17.4095 38.3911 17.4628C38.528 17.5162 38.6744 17.5397 38.8209 17.5319C38.9674 17.5242 39.1107 17.4852 39.2413 17.4177C39.372 17.3502 39.4872 17.2556 39.5794 17.14C39.6716 17.0244 39.7387 16.8905 39.7765 16.7469C39.8142 16.6034 39.8217 16.4533 39.7984 16.3066C39.7752 16.1599 39.7217 16.0198 39.6415 15.8954C39.5613 15.771 39.4561 15.6651 39.3329 15.5846C34.8777 11.9435 29.1467 10.0588 23 10.0588ZM23 19.5882C19.2465 19.5882 15.6812 20.7789 12.9389 22.9798C12.7216 23.1558 12.5819 23.4118 12.5504 23.6918C12.519 23.9719 12.5983 24.2532 12.7711 24.4741C12.9439 24.6951 13.196 24.8377 13.4723 24.8708C13.7487 24.9039 14.0267 24.8248 14.2456 24.6507C16.5865 22.7719 19.6893 21.7059 23 21.7059C26.3107 21.7059 29.4135 22.7719 31.7544 24.6507C31.9733 24.8248 32.2513 24.9039 32.5277 24.8708C32.804 24.8377 33.0561 24.6951 33.2289 24.4741C33.4017 24.2532 33.481 23.9719 33.4496 23.6918C33.4181 23.4118 33.2784 23.1558 33.061 22.9798C30.3188 20.7789 26.7535 19.5882 23 19.5882ZM23 29.6471C21.2681 29.6471 19.8641 31.0692 19.8641 32.8235C19.8641 34.5778 21.2681 36 23 36C24.7319 36 26.1359 34.5778 26.1359 32.8235C26.1359 31.0692 24.7319 29.6471 23 29.6471Z" fill="#4F4F4F"/>
</svg>

<svg width="58" height="46" viewBox="0 0 46 36" fill="none" xmlns="http://www.w3.org/2000/svg"><path d="M23 0C14.422 0 6.551 2.918.412 7.627a1.072 1.072 0 00-.196 1.489 1.039 1.039 0 001.47.199A35 35 0 0123 2.117a35 35 0 0121.314 7.196 1.039 1.039 0 001.47-.198 1.073 1.073 0 00-.196-1.49C39.448 2.919 31.578 0 23 0zm0 10.059c-6.147 0-11.878 1.885-16.333 5.526a1.052 1.052 0 00-.465.722 1.072 1.072 0 00.219.833 1.047 1.047 0 00.758.392 1.032 1.032 0 00.795-.31c4.048-3.308 9.301-5.046 15.026-5.046s10.978 1.738 15.026 5.046a1.045 1.045 0 00.795.31 1.034 1.034 0 00.758-.392 1.065 1.065 0 00.063-1.245 1.052 1.052 0 00-.31-.31C34.879 11.943 29.148 10.059 23 10.059zm0 9.53c-3.753 0-7.319 1.19-10.061 3.39a1.076 1.076 0 00-.168 1.494 1.042 1.042 0 001.474.177c2.342-1.878 5.444-2.944 8.755-2.944 3.31 0 6.413 1.066 8.754 2.945a1.042 1.042 0 001.475-.177 1.076 1.076 0 00-.168-1.494c-2.742-2.201-6.308-3.392-10.061-3.392zm0 10.058c-1.732 0-3.136 1.422-3.136 3.177C19.864 34.578 21.268 36 23 36c1.732 0 3.136-1.422 3.136-3.176 0-1.755-1.404-3.177-3.136-3.177z" fill="#4F4F4F"/></svg>
